X:230
T:Irish Spring
C:Ricky Skaggs
N:Transcribed by Kim Davis and Mike Stangeland
R:bluegrass
L:1/8
Q:1/4=214
M:4/4
K:C
z6 (3GE^G |: "Am"AB cA "E"BA ^GB | "Am"A2 E2 "E"Ee G^G | "Am"AB cA "E"BA ^GB | 
|1 A2 E2 "E"A2 (3GE^G :|2 A2 E2 "E"A2 cd |: "Am"ed ef ed c2 | "E"dc B2 BA B2 | 
"Am"c2 A2 AB cA | "G"B2 G2 G2 GG | "F"FE FG AG FG | "E"A2 E2 Ee (3EG^G | "Am"AB cA "E"BA ^GB | 
|1 A2 E2 A2 cd :|2 A2 E2 A2 ea |: "D"[^fcD]f aa aa ee | "Am"aa cd gd de | "C"ga ce aa ee | 
"Am"aa ed cB A2 :| 


